assets/ic-logo-full.svg

<?xml version="1.0" encoding="utf-8"?>
<!-- Generator: Adobe Illustrator 15.0.0, SVG Export Plug-In . SVG Version: 6.00 Build 0)  -->
<!DOCTYPE svg PUBLIC "-//W3C//DTD SVG 1.1//EN" "http://www.w3.org/Graphics/SVG/1.1/DTD/svg11.dtd">
<svg version="1.1" id="Layer_1" xmlns="http://www.w3.org/2000/svg" xmlns:xlink="http://www.w3.org/1999/xlink" x="0px" y="0px"
	 width="800px" height="108px" viewBox="0 0 800 108" enable-background="new 0 0 800 108" xml:space="preserve">
<linearGradient id="SVGID_1_" gradientUnits="userSpaceOnUse" x1="252.749" y1="101.8281" x2="252.749" y2="5.9702">
	<stop  offset="0.0056" style="stop-color:#FBC926"/>
	<stop  offset="0.2528" style="stop-color:#FFFBCC"/>
	<stop  offset="0.3045" style="stop-color:#F8F0BB"/>
	<stop  offset="0.4072" style="stop-color:#E7D28E"/>
	<stop  offset="0.55" style="stop-color:#CCA246"/>
	<stop  offset="0.5955" style="stop-color:#C3922E"/>
	<stop  offset="0.8708" style="stop-color:#EED688"/>
	<stop  offset="1" style="stop-color:#FFFBCC"/>
</linearGradient>
<path fill="url(#SVGID_1_)" d="M218.311,101.828h-0.313c2.037-33.667-2.665-64.449-0.628-95.662
	c5.64-0.577,12.844,0.869,19.583,0.58c0.472,31.356-0.157,65.021-0.157,94.504C230.528,101.828,220.503,100.814,218.311,101.828z
	 M244.315,53.709c-0.47-15.895,1.879-32.08,2.818-47.253c11.438-1.301,23.97,0.435,35.095,0.292
	c5.641,12.282,6.424,29.908,6.424,43.492c0,15.604-0.315,31.645-3.606,48.841c-11.435,3.61-23.969,2.31-35.878,1.733
	C245.251,88.82,244.783,69.027,244.315,53.709z M260.139,31.31c0.313,18.498-1.257,22.544,2.661,43.784l8.46-1.156
	c0.938-14.303,0.155-31.066-2.664-44.796C262.8,29.576,260.139,30.299,260.139,31.31z"/>
<linearGradient id="SVGID_2_" gradientUnits="userSpaceOnUse" x1="400.0005" y1="102.125" x2="400.0005" y2="5.8745">
	<stop  offset="0" style="stop-color:#1B7C55"/>
	<stop  offset="0.5" style="stop-color:#22B573"/>
	<stop  offset="1" style="stop-color:#1B7C55"/>
</linearGradient>
<path fill="url(#SVGID_2_)" d="M1.966,101.828H1.651c2.036-33.667-2.664-64.447-0.627-95.66c5.641-0.577,12.846,0.869,19.584,0.58
	c0.467,31.356-0.158,65.021-0.158,94.504C14.184,101.828,4.157,100.814,1.966,101.828z M43.633,7.322
	c2.666,12.284,4.857,28.611,10.499,46.243C55.23,46.048,55.23,20.329,54.444,6.6c5.954,0.291,11.283-0.288,16.765,1.015
	c-1.723,27.167-0.313,66.326-0.313,93.35c-9.717-0.583-10.655-0.583-14.884-0.291c-3.135-6.509-7.052-17.486-10.497-27.311
	c-0.471,7.945,0.626,20.519,0.47,27.74c-8.929,1.015-11.909,0-15.041,0c-0.47-34.531-1.254-67.481-1.569-93.781
	C34.705,6.891,38.779,7.469,43.633,7.322z M89.693,101.396C86.56,81.6,84.836,68.882,82.331,51.254
	c-1.568-10.693-3.605-30.633-6.581-43.065c5.169-1.732,13.629-1.876,18.484-1.876c2.354,13.438,3.919,32.514,5.798,43.349
	c2.507-14.304,3.917-17.774,6.737-42.482c3.917,0,10.653-0.866,16.45-0.866c-4.074,16.615-6.111,36.414-8.304,53.754
	c-1.722,13.873-3.444,24.709-5.64,42.051C103.013,100.814,96.274,101.252,89.693,101.396z M155.179,7.037
	c4.074,32.078,9.087,61.124,12.374,93.344c-5.012,0-14.098,0.292-19.896,0.148c-1.252-4.189-2.036-12.144-4.699-29.045l-4.229-0.719
	c-1.879,8.092-1.879,22.688-3.134,30.633c-4.855-0.433-10.026,0.148-14.256-0.145c1.723-32.802,4.699-63.871,7.989-94.072
	C136.221,6.748,148.443,6.456,155.179,7.037z M146.404,51.253c-1.253-9.25-1.723-15.32-4.229-26.3
	c-1.568,10.982-1.568,23.411-2.194,26.156C141.393,51.829,144.837,52.12,146.404,51.253z M193.56,37.236
	c0.313-1.878,0.156-6.356,0.313-8.238l-5.014-0.143c-1.565,2.744-0.625,8.813-0.625,11.992c3.759,2.167,7.833,4.19,15.351,7.516
	c2.352,1.013,3.92,1.877,3.92,5.635c0.313,17.629,1.724,31.938-1.725,46.383c-7.991,1.592-25.849,3.037-32.116-2.309
	c-2.351-9.252-2.351-19.512-1.723-32.653c2.35-1.446,8.931-0.292,11.75-0.146c0.625,4.332,0.939,9.678,1.41,12.857
	c2.039,0.867,6.108,2.313,6.58-0.57V63.686c-7.206-5.348-14.1-7.373-19.583-12.717c-2.351-14.015-2.817-27.888-0.781-42.338
	c4.386-2.316,9.712-2.75,16.292-2.75c4.7,0,18.33,1.158,18.957,3.181c3.914,7.369,2.192,22.25,0.47,29.043
	C202.804,38.536,197.788,39.261,193.56,37.236z M309.797,7.322c2.662,12.284,4.856,28.611,10.498,46.243
	c1.097-7.517,1.097-33.236,0.313-46.965c5.953,0.291,11.282-0.288,16.764,1.015c-1.725,27.167-0.314,66.326-0.314,93.35
	c-9.71-0.583-10.65-0.583-14.882-0.291c-3.134-6.509-7.049-17.486-10.498-27.311c-0.47,7.945,0.628,20.519,0.472,27.74
	c-8.933,1.015-11.905,0-15.04,0c-0.47-34.531-1.256-67.481-1.567-93.781C300.866,6.891,304.939,7.469,309.797,7.322z
	 M372.057,100.259c-1.552-6.858-2.638-14.155-3.259-24.598c-1.395-24.451-2.636-45.042,1.707-67.782
	c8.216-2.286,24.808-1.142,32.715,0.144c1.856,13.301,2.479,24.167,1.548,38.75c-4.187,1.573-12.712,1.004-14.727-0.713
	c-0.157-4.717,0-12.869-2.483-18.447l-4.807,1.145c-0.623,7.865-0.931,31.891,2.948,46.191l5.271-0.861
	c0-5.717-0.932-13.58-1.396-18.301c3.877,0,8.373-0.43,11.163,0.143c2.945,0,4.34,1.86,4.188,5.723
	c-0.16,7.007-0.466,29.6-3.104,38.462C391.744,101.116,381.821,100.259,372.057,100.259z M410.656,53.64
	c-0.464-15.73,1.856-31.746,2.788-46.762c11.321-1.285,23.724,0.43,34.729,0.288c5.581,12.157,6.355,29.6,6.355,43.042
	c0,15.446-0.313,31.315-3.566,48.338c-11.322,3.572-23.722,2.286-35.507,1.71C411.587,88.387,411.12,68.8,410.656,53.64z
	 M426.315,31.475c0.309,18.305-1.242,22.308,2.633,43.332l8.374-1.145c0.932-14.152,0.159-30.743-2.636-44.332
	C428.948,29.761,426.315,30.474,426.315,31.475z M492.823,101.116c-6.049-0.857-18.294-0.144-29.922-0.572
	c-0.313-29.599-2.328-63.63-1.084-93.95c6.046,0.146,13.175-0.571,19.992,0c-0.616,22.309-2.013,48.049-1.702,70.643
	c3.104-0.144,8.062-0.998,13.021-0.856C493.13,85.24,493.596,93.251,492.823,101.116z M501.654,100.259
	c-1.549-6.858-2.633-14.155-3.25-24.598c-1.399-24.451-2.642-45.042,1.706-67.782c8.216-2.286,24.808-1.142,32.714,0.144
	c1.858,13.301,2.481,24.167,1.555,38.75c-4.187,1.573-12.717,1.004-14.729-0.713c-0.16-4.717,0-12.869-2.481-18.447l-4.809,1.145
	c-0.618,7.865-0.931,31.891,2.944,46.191l5.271-0.861c0-5.717-0.93-13.58-1.397-18.301c3.878,0,8.38-0.43,11.165,0.143
	c2.943,0,4.342,1.86,4.188,5.723c-0.16,7.007-0.469,29.6-3.106,38.462C521.346,101.116,511.425,100.259,501.654,100.259z
	 M564.757,53.783l-3.875-0.432c-0.772,20.021-1.087,28.603-0.62,47.907c-5.425-0.283-11.164,0.569-16.279-0.145
	c-0.619-31.746-0.153-66.065-2.321-94.667c4.342,0.857,14.268-0.288,16.436,0.857l0.46,16.589c2.644,0.288,4.811,0.146,6.982,0.146
	c0.621-3.147,0.464-7.438,1.085-18.164c6.357,0.285,10.698,0.285,17.521,1.429c0.775,30.889-0.934,61.493,0.465,92.377
	c-4.341,0.858-13.18,0.145-18.289,0.432C566.153,84.387,567.237,69.082,564.757,53.783z M628.939,7.879
	c-0.936,5.006,0.464,11.444-0.775,15.446c-5.735-0.43-11.63-0.43-17.362-0.287c-0.771,4.717-0.155,9.582,1.087,14.012
	c4.963-0.428,10.392-0.141,17.057,0.291c-0.156,6.863-1.556,12.007-2.791,18.729c0.312,0.144-8.991-0.432-13.804,0.434
	c-0.149,7.578-0.149,14.152,0.936,21.732c5.114,0.57,9.612,0.856,14.417,0.717c0,6.006-0.312,15.582-1.087,22.021
	c-7.598,0.854-23.563,0.428-31.161,0.567c-2.947-28.89-3.57-64.201-3.415-93.667C603.201,7.879,619.017,8.311,628.939,7.879z
	 M657.307,37.341c0.312-1.861,0.156-6.294,0.312-8.154l-4.965-0.142c-1.553,2.715-0.622,8.722-0.622,11.868
	c3.723,2.143,7.752,4.146,15.201,7.435c2.316,1.001,3.87,1.858,3.87,5.577c0.31,17.445,1.705,31.604-1.704,45.903
	c-7.906,1.568-25.578,3.004-31.779-2.287c-2.326-9.152-2.326-19.305-1.704-32.316c2.326-1.43,8.834-0.285,11.627-0.144
	c0.62,4.29,0.929,9.58,1.396,12.728c2.02,0.859,6.048,2.287,6.513-0.565V63.514c-7.125-5.297-13.95-7.299-19.377-12.588
	c-2.32-13.873-2.788-27.6-0.773-41.9c4.346-2.287,9.613-2.714,16.126-2.714c4.649,0,18.143,1.142,18.761,3.144
	c3.875,7.293,2.173,22.021,0.464,28.743C666.456,38.625,661.492,39.34,657.307,37.341z M685.055,100.831
	c0-24.597,0.163-50.48-0.769-74.933c-4.649,0-0.313-0.143-8.683-0.143c0-5.863-0.778-13.871,0.303-18.305
	c15.505-1.142,21.088,0,37.837-1.001c0,5.581,0.771,12.299,0.62,21.736c-5.584,0.146-8.063,1.001-11.011,1.286
	c0.466,24.453,1.241,48.765,1.241,70.927C698.39,100.544,693.891,100.831,685.055,100.831z M754.976,7.879
	c-0.927,5.006,0.468,11.444-0.771,15.446c-5.733-0.43-11.629-0.43-17.362-0.287c-0.771,4.717-0.155,9.582,1.086,14.012
	c4.962-0.428,10.392-0.141,17.058,0.291c-0.159,6.863-1.556,12.007-2.791,18.729c0.308,0.144-8.992-0.432-13.803,0.434
	c-0.152,7.578-0.152,14.152,0.937,21.732c5.114,0.57,9.607,0.856,14.417,0.717c0,6.006-0.313,15.582-1.086,22.021
	c-7.6,0.854-23.564,0.428-31.169,0.567c-2.943-28.89-3.563-64.201-3.406-93.667C729.237,7.879,745.053,8.311,754.976,7.879z
	 M797.143,51.637c-0.771,3.575-4.801,3.003-7.127,4.864c2.638,2.149,8.374,3.004,8.374,6.583c0,12.293,0.932,25.736-0.776,37.322
	c-4.182-0.146-11.781,0.287-16.121,0.433c-0.93-9.438,1.855-26.743-1.553-34.606l-2.788,0.572c0.465,10.004,0.31,21.592,0.929,33.03
	c-4.646,1.004-11.469,1.574-15.341,2.29c-1.559-31.605-2.328-60.63-0.628-93.235c1.706-0.43,28.523-4.716,35.351,2.43
	c2.322,2.432,1.706,7.15,1.859,10.155C799.777,32.046,799.468,40.627,797.143,51.637z M776.369,24.897
	c0.927,8.294,0.927,16.731,0.771,25.027l4.805,1.144c2.331-6.862,1.862-21.881,0.935-27.314L776.369,24.897z"/>
</svg>

<?xml version="1.0" encoding="UTF-8" standalone="no"?>
<!DOCTYPE svg PUBLIC "-//W3C//DTD SVG 1.1//EN" "http://www.w3.org/Graphics/SVG/1.1/DTD/svg11.dtd">
<svg width="100%" height="100%" viewBox="0 0 800 108" version="1.1" xmlns="http://www.w3.org/2000/svg" xmlns:xlink="http://www.w3.org/1999/xlink" xml:space="preserve" xmlns:serif="http://www.serif.com/" style="fill-rule:evenodd;clip-rule:evenodd;stroke-linejoin:round;stroke-miterlimit:2;">
    <path d="M218.311,101.828L217.998,101.828C220.035,68.161 215.333,37.379 217.37,6.166C223.01,5.589 230.214,7.035 236.953,6.746C237.425,38.102 236.796,71.767 236.796,101.25C230.528,101.828 220.503,100.814 218.311,101.828ZM244.315,53.709C243.845,37.814 246.194,21.629 247.133,6.456C258.571,5.155 271.103,6.891 282.228,6.748C287.869,19.03 288.652,36.656 288.652,50.24C288.652,65.844 288.337,81.885 285.046,99.081C273.611,102.691 261.077,101.391 249.168,100.814C245.251,88.82 244.783,69.027 244.315,53.709ZM260.139,31.31C260.452,49.808 258.882,53.854 262.8,75.094L271.26,73.938C272.198,59.635 271.415,42.872 268.596,29.142C262.8,29.576 260.139,30.299 260.139,31.31Z" style="fill:white;fill-rule:nonzero;"/>
    <path d="M1.966,101.828L1.651,101.828C3.687,68.161 -1.013,37.381 1.024,6.168C6.665,5.591 13.87,7.037 20.608,6.748C21.075,38.104 20.45,71.769 20.45,101.252C14.184,101.828 4.157,100.814 1.966,101.828ZM43.633,7.322C46.299,19.606 48.49,35.933 54.132,53.565C55.23,46.048 55.23,20.329 54.444,6.6C60.398,6.891 65.727,6.312 71.209,7.615C69.486,34.782 70.896,73.941 70.896,100.965C61.179,100.382 60.241,100.382 56.012,100.674C52.877,94.165 48.96,83.188 45.515,73.363C45.044,81.308 46.141,93.882 45.985,101.103C37.056,102.118 34.076,101.103 30.944,101.103C30.474,66.572 29.69,33.622 29.375,7.322C34.705,6.891 38.779,7.469 43.633,7.322ZM89.693,101.396C86.56,81.6 84.836,68.882 82.331,51.254C80.763,40.561 78.726,20.621 75.75,8.189C80.919,6.457 89.379,6.313 94.234,6.313C96.588,19.751 98.153,38.827 100.032,49.662C102.539,35.358 103.949,31.888 106.769,7.18C110.686,7.18 117.422,6.314 123.219,6.314C119.145,22.929 117.108,42.728 114.915,60.068C113.193,73.941 111.471,84.777 109.275,102.119C103.013,100.814 96.274,101.252 89.693,101.396ZM155.179,7.037C159.253,39.115 164.266,68.161 167.553,100.381C162.541,100.381 153.455,100.673 147.657,100.529C146.405,96.34 145.621,88.385 142.958,71.484L138.729,70.765C136.85,78.857 136.85,93.453 135.595,101.398C130.74,100.965 125.569,101.546 121.339,101.253C123.062,68.451 126.038,37.382 129.328,7.181C136.221,6.748 148.443,6.456 155.179,7.037ZM146.404,51.253C145.151,42.003 144.681,35.933 142.175,24.953C140.607,35.935 140.607,48.364 139.981,51.109C141.393,51.829 144.837,52.12 146.404,51.253ZM193.56,37.236C193.873,35.358 193.716,30.88 193.873,28.998L188.859,28.855C187.294,31.599 188.234,37.668 188.234,40.847C191.993,43.014 196.067,45.037 203.585,48.363C205.937,49.376 207.505,50.24 207.505,53.998C207.818,71.627 209.229,85.936 205.78,100.381C197.789,101.973 179.931,103.418 173.664,98.072C171.313,88.82 171.313,78.56 171.941,65.419C174.291,63.973 180.872,65.127 183.691,65.273C184.316,69.605 184.63,74.951 185.101,78.13C187.14,78.997 191.209,80.443 191.681,77.56L191.681,63.686C184.475,58.338 177.581,56.313 172.098,50.969C169.747,36.954 169.281,23.081 171.317,8.631C175.703,6.315 181.029,5.881 187.609,5.881C192.309,5.881 205.939,7.039 206.566,9.062C210.48,16.431 208.758,31.312 207.036,38.105C202.804,38.536 197.788,39.261 193.56,37.236ZM309.797,7.322C312.459,19.606 314.653,35.933 320.295,53.565C321.392,46.048 321.392,20.329 320.608,6.6C326.561,6.891 331.89,6.312 337.372,7.615C335.647,34.782 337.058,73.941 337.058,100.965C327.348,100.382 326.408,100.382 322.176,100.674C319.042,94.165 315.127,83.188 311.678,73.363C311.208,81.308 312.306,93.882 312.15,101.103C303.217,102.118 300.245,101.103 297.11,101.103C296.64,66.572 295.854,33.622 295.543,7.322C300.866,6.891 304.939,7.469 309.797,7.322ZM372.057,100.259C370.505,93.401 369.419,86.104 368.798,75.661C367.403,51.21 366.162,30.619 370.505,7.879C378.721,5.593 395.313,6.737 403.22,8.023C405.076,21.324 405.699,32.19 404.768,46.773C400.581,48.346 392.056,47.777 390.041,46.06C389.884,41.343 390.041,33.191 387.558,27.613L382.751,28.758C382.128,36.623 381.82,60.649 385.699,74.949L390.97,74.088C390.97,68.371 390.038,60.508 389.574,55.787C393.451,55.787 397.947,55.357 400.737,55.93C403.682,55.93 405.077,57.79 404.925,61.653C404.765,68.66 404.459,91.253 401.821,100.115C391.744,101.116 381.821,100.259 372.057,100.259ZM410.656,53.64C410.192,37.91 412.512,21.894 413.444,6.878C424.765,5.593 437.168,7.308 448.173,7.166C453.754,19.323 454.528,36.766 454.528,50.208C454.528,65.654 454.215,81.523 450.962,98.546C439.64,102.118 427.24,100.832 415.455,100.256C411.587,88.387 411.12,68.8 410.656,53.64ZM426.315,31.475C426.624,49.78 425.073,53.783 428.948,74.807L437.322,73.662C438.254,59.51 437.481,42.919 434.686,29.33C428.948,29.761 426.315,30.474 426.315,31.475ZM492.823,101.116C486.774,100.259 474.529,100.972 462.901,100.544C462.588,70.945 460.573,36.914 461.817,6.594C467.863,6.74 474.992,6.023 481.809,6.594C481.193,28.903 479.796,54.643 480.107,77.237C483.211,77.093 488.169,76.239 493.128,76.381C493.13,85.24 493.596,93.251 492.823,101.116ZM501.654,100.259C500.105,93.401 499.021,86.104 498.404,75.661C497.005,51.21 495.762,30.619 500.11,7.879C508.326,5.593 524.918,6.737 532.824,8.023C534.682,21.324 535.305,32.19 534.379,46.773C530.192,48.346 521.662,47.777 519.65,46.06C519.49,41.343 519.65,33.191 517.169,27.613L512.36,28.758C511.742,36.623 511.429,60.649 515.304,74.949L520.575,74.088C520.575,68.371 519.645,60.508 519.178,55.787C523.056,55.787 527.558,55.357 530.343,55.93C533.286,55.93 534.685,57.79 534.531,61.653C534.371,68.66 534.062,91.253 531.425,100.115C521.346,101.116 511.425,100.259 501.654,100.259ZM564.757,53.783L560.882,53.351C560.11,73.372 559.795,81.954 560.262,101.258C554.837,100.975 549.098,101.827 543.983,101.113C543.364,69.367 543.83,35.048 541.662,6.446C546.004,7.303 555.93,6.158 558.098,7.303L558.558,23.892C561.202,24.18 563.369,24.038 565.54,24.038C566.161,20.891 566.004,16.6 566.625,5.874C572.982,6.159 577.323,6.159 584.146,7.303C584.921,38.192 583.212,68.796 584.611,99.68C580.27,100.538 571.431,99.825 566.322,100.112C566.153,84.387 567.237,69.082 564.757,53.783ZM628.939,7.879C628.003,12.885 629.403,19.323 628.164,23.325C622.429,22.895 616.534,22.895 610.802,23.038C610.031,27.755 610.647,32.62 611.889,37.05C616.852,36.622 622.281,36.909 628.946,37.341C628.79,44.204 627.39,49.348 626.155,56.07C626.467,56.214 617.164,55.638 612.351,56.504C612.202,64.082 612.202,70.656 613.287,78.236C618.401,78.806 622.899,79.092 627.704,78.953C627.704,84.959 627.392,94.535 626.617,100.974C619.019,101.828 603.054,101.402 595.456,101.541C592.509,72.651 591.886,37.34 592.041,7.874C603.201,7.879 619.017,8.311 628.939,7.879ZM657.307,37.341C657.619,35.48 657.463,31.047 657.619,29.187L652.654,29.045C651.101,31.76 652.032,37.767 652.032,40.913C655.755,43.056 659.784,45.059 667.233,48.348C669.549,49.349 671.103,50.206 671.103,53.925C671.413,71.37 672.808,85.529 669.399,99.828C661.493,101.396 643.821,102.832 637.62,97.541C635.294,88.389 635.294,78.236 635.916,65.225C638.242,63.795 644.75,64.94 647.543,65.081C648.163,69.371 648.472,74.661 648.939,77.809C650.959,78.668 654.987,80.096 655.452,77.244L655.452,63.514C648.327,58.217 641.502,56.215 636.075,50.926C633.755,37.053 633.287,23.326 635.302,9.026C639.648,6.739 644.915,6.312 651.428,6.312C656.077,6.312 669.571,7.454 670.189,9.456C674.064,16.749 672.362,31.477 670.653,38.199C666.456,38.625 661.492,39.34 657.307,37.341ZM685.055,100.831C685.055,76.234 685.218,50.351 684.286,25.898C679.637,25.898 683.973,25.755 675.603,25.755C675.603,19.892 674.825,11.884 675.906,7.45C691.411,6.308 696.994,7.45 713.743,6.449C713.743,12.03 714.514,18.748 714.363,28.185C708.779,28.331 706.3,29.186 703.352,29.471C703.818,53.924 704.593,78.236 704.593,100.398C698.39,100.544 693.891,100.831 685.055,100.831ZM754.976,7.879C754.049,12.885 755.444,19.323 754.205,23.325C748.472,22.895 742.576,22.895 736.843,23.038C736.072,27.755 736.688,32.62 737.929,37.05C742.891,36.622 748.321,36.909 754.987,37.341C754.828,44.204 753.431,49.348 752.196,56.07C752.504,56.214 743.204,55.638 738.393,56.504C738.241,64.082 738.241,70.656 739.33,78.236C744.444,78.806 748.937,79.092 753.747,78.953C753.747,84.959 753.434,94.535 752.661,100.974C745.061,101.828 729.097,101.402 721.492,101.541C718.549,72.651 717.929,37.34 718.086,7.874C729.237,7.879 745.053,8.311 754.976,7.879ZM797.143,51.637C796.372,55.212 792.342,54.64 790.016,56.501C792.654,58.65 798.39,59.505 798.39,63.084C798.39,75.377 799.322,88.82 797.614,100.406C793.432,100.26 785.833,100.693 781.493,100.839C780.563,91.401 783.348,74.096 779.94,66.233L777.152,66.805C777.617,76.809 777.462,88.397 778.081,99.835C773.435,100.839 766.612,101.409 762.74,102.125C761.181,70.52 760.412,41.495 762.112,8.89C763.818,8.46 790.635,4.174 797.463,11.32C799.785,13.752 799.169,18.47 799.322,21.475C799.777,32.046 799.468,40.627 797.143,51.637ZM776.369,24.897C777.296,33.191 777.296,41.628 777.14,49.924L781.945,51.068C784.276,44.206 783.807,29.187 782.88,23.754L776.369,24.897Z" style="fill:white;fill-rule:nonzero;"/>
</svg>
